X: 1
T: Larid\'e de Kervignac
O: trad. Bretagne
R: larid\'e
S: handout at NEFFA 2016 from Mark Vidor p.2, from tablature by Bernard Loffet
Z: 2016 John Chambers <jc:trillian.mit.edu>
M: 2/4
L: 1/8
K: C
|:\
"C"c2cd e2g2 | "G"d2d2 "C"e2cd | "C"e3g "G"d4 :|\
"C"g2gg "F"g3a | "C"g2g2 e2gf | "F"e2d2 "G"g2g2 |
|:\
"C"c2cd e2dc | "G"d4 "F"g2gf | "G"e2d2 "C"g2g2 |\
"C"c2cd e2dc | "G"d4 "F"g2gf | "G"e3d "C"c4 :|
